X: 19584
T: Jameson's
R: jig
M: 6/8
K: Dmajor
|:DFA dcd|ecA efg|fed g2f|ecA a3|
DFA dcd|ecA efg|fdc Adc|dAF D3:|
|:B3 b3|fdc B3|Aa^g afa|ead aca|
B2b agf|edc B3|Ace gfe|fdc d3:|

